icons/speech-bubble-cross.svg

<svg xmlns="http://www.w3.org/2000/svg" width="24" height="24" viewBox="0 0 24 24">
  <path d="M15,3 C19.5522847,3 23,6.44771525 23,11 C23,15.5522847 19.5522847,19 15,19 L15,19 L14.492,19 L14.4215793,19.0906275 C13.7103901,19.9663638 12.948642,20.6393906 11.8907103,21.256749 L11.8907103,21.256749 L11.5946555,21.4238497 L11.2369286,21.6140163 L10.9086251,21.7821926 C9.57755795,22.4597178 8,21.4937799 8,20 L8,20 L8,19 C4.27285013,19 1,15.3634999 1,11 C1,6.5377729 4.49099359,3 9,3 L9,3 Z M10.6128994,8.20970461 C10.2206082,7.90467972 9.65337718,7.93240926 9.29289322,8.29289322 C8.90236893,8.68341751 8.90236893,9.31658249 9.29289322,9.70710678 L9.29289322,9.70710678 L10.585,11 L9.29289322,12.2928932 L9.20970461,12.3871006 C8.90467972,12.7793918 8.93240926,13.3466228 9.29289322,13.7071068 C9.68341751,14.0976311 10.3165825,14.0976311 10.7071068,13.7071068 L10.7071068,13.7071068 L12,12.415 L13.2928932,13.7071068 L13.3871006,13.7902954 C13.7793918,14.0953203 14.3466228,14.0675907 14.7071068,13.7071068 C15.0976311,13.3165825 15.0976311,12.6834175 14.7071068,12.2928932 L14.7071068,12.2928932 L13.415,11 L14.7071068,9.70710678 L14.7902954,9.61289944 C15.0953203,9.22060824 15.0675907,8.65337718 14.7071068,8.29289322 C14.3165825,7.90236893 13.6834175,7.90236893 13.2928932,8.29289322 L13.2928932,8.29289322 L12,9.585 L10.7071068,8.29289322 Z"/>
</svg>

<svg xmlns="http://www.w3.org/2000/svg" viewBox="0 0 24 24">
  <path d="M15 3c4.55 0 8 3.45 8 8s-3.45 8-8 8h-.5l-.08.1a8.85 8.85 0 0 1-2.53 2.16l-.3.16-.35.2-.33.16A2 2 0 0 1 8 20v-1c-3.73 0-7-3.64-7-8 0-4.46 3.5-8 8-8zm-4.39 5.21a1 1 0 0 0-1.32 1.5L10.6 11l-1.3 1.3-.08.09a1 1 0 0 0 1.5 1.32L12 12.4l1.3 1.3.09.08a1 1 0 0 0 1.32-1.5L13.4 11l1.3-1.3.08-.09a1 1 0 0 0-1.5-1.32L12 9.6l-1.3-1.3z"/>
</svg>
